Flat-Remix-Blue/mimetypes/scalable/text-x-vala.svg

<svg xmlns="http://www.w3.org/2000/svg" xmlns:xlink="http://www.w3.org/1999/xlink" width="36pt" height="36pt" version="1.1" viewBox="0 0 36 36"> <defs> <clipPath id="clip1"> <path d="M 20 2 L 31 2 L 31 13 L 20 13 Z M 20 2"/> </clipPath> <clipPath id="clip2"> <path d="M 20.515625 2.625 L 30.328125 12.4375 L 22.023438 12.4375 C 21.292969 12.4375 20.515625 11.660156 20.515625 10.929688 Z M 20.515625 2.625"/> </clipPath> <image id="image6" width="36" height="36" xlink:href="data:image/png;base64,iVBORw0KGgoAAAANSUhEUgAAACQAAAAkCAYAAADhAJiYAAAABmJLR0QA/wD/AP+gvaeTAAAAmklEQVRYhe3T0QqCQBBG4aOtYEoUvf9Lildltl00C4tkbBeTIP+BAUEYP1YW1Pcqh53B9kbgaVPcwQF0tAmGSrMZ6AKcDQXw+AUVHEAtcAUaewYYgYmC3+cBCkAPnDJQMcoDVNnebgEqQnmAclTz4d0I3P4JStc9AjXvk4qLWQV53LLeEOl05gw4A3dgcPiuUkoppZRSSqk99gLWvSJpuDnlsAAAAABJRU5ErkJggg=="/> </defs> <g> <path style="fill:rgb(0%,0%,0%)" d="M 7.347656 3.152344 C 6.675781 3.152344 6.042969 3.785156 6.042969 4.457031 L 6.042969 31.847656 C 6.042969 32.480469 6.714844 33.152344 7.347656 33.152344 L 28.21875 33.152344 C 28.851562 33.152344 29.523438 32.480469 29.523438 31.847656 L 29.523438 11.632812 L 21.042969 3.152344 Z M 7.347656 3.152344"/> <g clip-path="url(#clip1)"> <g clip-path="url(#clip2)"> <use xlink:href="#image6"/> </g> </g> <path style="fill:rgb(20.000%,20.000%,20.000%)" d="M 21.042969 3.152344 L 29.523438 11.632812 L 22.347656 11.632812 C 21.714844 11.632812 21.042969 10.960938 21.042969 10.328125 Z M 21.042969 3.152344"/> <path style="fill:rgb(100.000%,100.000%,100.000%)" d="M 23.277344 15.269531 C 22.109375 15.269531 21.515625 15.6875 21.050781 16.261719 C 20.582031 16.835938 20.304688 17.605469 19.984375 18.261719 C 19.769531 18.707031 19.289062 20.351562 18.847656 21.902344 C 18.480469 23.1875 18.148438 24.457031 17.597656 25.589844 C 17.203125 26.195312 16.570312 26.539062 15.933594 26.539062 C 15.710938 26.539062 15.488281 26.496094 15.273438 26.410156 C 16.027344 27.492188 17.773438 29.246094 19.808594 26.324219 C 21.214844 24.300781 21.683594 19.9375 22.6875 18.296875 C 23.949219 16.210938 24.585938 16.699219 24.742188 16.875 C 24.773438 16.707031 24.789062 16.527344 24.777344 16.359375 C 24.765625 16.042969 24.6875 15.800781 24.507812 15.625 C 24.328125 15.445312 23.984375 15.277344 23.277344 15.277344 Z M 13.757812 17.113281 C 14.058594 17.460938 14.300781 17.90625 14.445312 18.429688 C 14.769531 19.605469 14.832031 21.058594 14.90625 22.339844 C 14.941406 22.984375 14.980469 23.578125 15.039062 24.046875 C 15.089844 24.777344 15.367188 25.273438 15.9375 25.328125 C 16.625 25.292969 16.835938 24.460938 17.042969 23.851562 C 16.730469 23.714844 16.285156 22.96875 15.9375 20.109375 C 15.738281 18.460938 14.566406 17.550781 13.757812 17.113281 Z M 11.90625 17.40625 C 11.757812 17.40625 11.628906 17.449219 11.53125 17.519531 C 11.398438 17.617188 11.28125 17.769531 11.230469 18.09375 C 11.152344 18.578125 11.480469 19.121094 11.78125 19.546875 C 11.78125 19.546875 11.78125 18.941406 12.367188 18.640625 C 12.6875 18.476562 13.082031 18.742188 13.378906 19.019531 C 13.359375 18.933594 13.335938 18.847656 13.316406 18.765625 C 13.078125 17.902344 12.507812 17.492188 12.0625 17.417969 Z M 11.90625 17.40625"/> </g> </svg>

<svg width="36pt" height="36pt" version="1.1" viewBox="0 0 36 36" xmlns="http://www.w3.org/2000/svg"><defs><filter id="a" x="-.192" y="-.192" width="1.384" height="1.384" color-interpolation-filters="sRGB"><feGaussianBlur stdDeviation="0.67843748"/></filter></defs><path d="m7.3477 3.1523c-0.67188 0-1.3047 0.63281-1.3047 1.3047v27.391c0 0.63281 0.67188 1.3047 1.3047 1.3047h20.871c0.63281 0 1.3047-0.67188 1.3047-1.3047v-20.215l-8.4805-8.4805z" fill="#8c42ab"/><path d="m20.668 3.5272 8.4805 8.4805h-7.1758c-0.63281 0-1.3047-0.67187-1.3047-1.3047z" filter="url(#a)" opacity=".2"/><path d="m21.043 3.1523 8.4805 8.4805h-7.1758c-0.63281 0-1.3047-0.67187-1.3047-1.3047z" fill="#ae7ac4"/><path d="m23.277 15.27c-1.168 0-1.7617 0.41797-2.2266 0.99219-0.46875 0.57422-0.74609 1.3438-1.0664 2-0.21484 0.44531-0.69531 2.0898-1.1367 3.6406-0.36719 1.2852-0.69922 2.5547-1.25 3.6875-0.39453 0.60547-1.0273 0.94922-1.6641 0.94922-0.22266 0-0.44531-0.042968-0.66016-0.12891 0.75391 1.082 2.5 2.8359 4.5352-0.085937 1.4062-2.0234 1.875-6.3867 2.8789-8.0273 1.2617-2.0859 1.8984-1.5977 2.0547-1.4219 0.03125-0.16797 0.046874-0.34766 0.035156-0.51562-0.011719-0.31641-0.089844-0.55859-0.26953-0.73438-0.17969-0.17969-0.52344-0.34766-1.2305-0.34766zm-9.5195 1.8438c0.30078 0.34766 0.54297 0.79297 0.6875 1.3164 0.32422 1.1758 0.38672 2.6289 0.46094 3.9102 0.035156 0.64453 0.074219 1.2383 0.13281 1.707 0.050782 0.73047 0.32813 1.2266 0.89844 1.2812 0.6875-0.035156 0.89844-0.86719 1.1055-1.4766-0.3125-0.13672-0.75781-0.88281-1.1055-3.7422-0.19922-1.6484-1.3711-2.5586-2.1797-2.9961zm-1.8516 0.29297c-0.14844 0-0.27734 0.042969-0.375 0.11328-0.13281 0.097657-0.25 0.25-0.30078 0.57422-0.078125 0.48438 0.25 1.0273 0.55078 1.4531 0 0 0-0.60547 0.58594-0.90625 0.32031-0.16406 0.71484 0.10156 1.0117 0.37891-0.019531-0.085937-0.042968-0.17188-0.0625-0.25391-0.23828-0.86328-0.80859-1.2734-1.2539-1.3477z" fill="#fff"/></svg>
